X:1
T:Io vorrei un bel viso
T:Benedetto Ferrari
T:Source : Musiche Varie a voce sola---Libro primo---Venetia---B.Magni---1633. Editor : André Vierendeels (01/01/17).
T:Notes : Original clefs : C4, F4 Editorial accidentals above the staff Figures in BC are notated in original print Original note values have been halved in 3-beat measures Dotted brackets indicate black notes 
T:#
T:Io vorrei un bel viso
T:©
T:©
T:©
C:Benedetto Ferrari
Z:©
%%score 1 { 2 | 3 }
L:1/8
Q:1/4=112
M:4/4
K:C
V:1 treble-8 nm="Tenor" snm="T"
V:2 treble nm="MusicXML Part"
V:3 bass 
V:1
 z2 EE E2 ^FG | AAAA A2 A>^G | A2 dd d2 d>c | d4 z G A/B/c/d/ | ee/d/ d3 d/c/ c2- | c2 c2 z ddd | %6
w: Io vor- rei un bel|vi- so, sem- pre, sem- pre mi-|rar sem- pre, sem- pre mi-|rar ma non puo sor- mon-|tar pria che mort' un vi- ven-|* te al Pa- ra-|
w: O quan- te vol- te,|o quan- te'à quel ca- ro splen-|dor, à quel ca- ro splen-|dor, mi vol- ge- rei al-|lor piu che Cli- ti- al suo|_ Sol far- fal- la'er-|
w: Deh chi mi pre- sta,|deh mi pre- sta'un sguar- do, an-|zi cent' oc- chi (o Di-|o) ac- cio ch'a pia- cer|mio io ri- mi- ri'un bel vol-|* to, on- de tut-|
 d8 | c8 |[M:6/4] E2 F2 G2 A6 |"^6" G2 G4 F6 | A2 B2 ^c2 d6 | d2 d3 c d6 | z2 z2 G2 A6 | %13
w: di-|so,|dun- que'o mio co-|re'à mor- te|ne trag- g'a- mi-|ca sor- te _|che fà,|
w: ran-|te|dun- qie tal for-|ma'o co- re,|pren- d'in vir- tu|d'a- mo- re, _|che fe|
w: t'ar-|do|ma, las- so, che|de- si- o|se so be- nis-|si- m'i- o, _|ch'an- cor|
 A2 B2 B2 c6- | c4 c2 A2 B2 c2 | ^G4 A4 A3 G | A6 z2 G2 ^F2 | ^F4 FE E6 | z2 c2 d2 e4 AA | A6 G6 | %20
w: che fà fe- li-|* ce, e no- bi-|le par- ti- ta,|_ chi per|gir- se- ne'al ciel,|la- scia, la- scia la|vi- ta,|
w: che fe la- sci-|* i, non hà'l tor-|men- to lo- co,|_ fia ca-|to e dol- ce'in|Pa- ra- di- so di|fo- co,|
w: che cin- to di|_ si bei splen- do-|ri, splen- do- ri,|_ e'un ciel|à gli'oc- * chi,|ed' un in- fer- no'ai|co- ri|
 z2 e2 f2 g6- | g2 d2 d2 d6 | !fermata!c12 |] %23
w: la- scia, la-|* scia la vi-|ta.|
w: Pa- ra- di-|* so di fo-|co.|
w: ed' un in-|* fer- no'ai co-|ri.|
V:2
 z8 | z8 | z8 | z8 | z8 | z8 | z8 | z8 |[M:6/4] z12 |"^6" z12 | z12 | z12 | z12 | z12 | z12 | z12 | %16
 z12 | z12 | z12 | z12 | z12 | z12 | z12 |] %23
V:3
"^BC" C,6 B,,2 |"^-natural""^7" A,,2 D,,2 E,,4 | A,,2 ^F,2 G,2 A,2 | D,4 B,,4 | %4
"^5" A,,2 F,,2 G,,2 E,,2 |"^5""^6""^5""^6" F,,2 G,,2 A,,2 F,,2 |"^4 3" G,,8 | C,8 | %8
[M:6/4] C,2 D,2 E,2 F,2 A,,2 _B,,2 |"^5""^4 3" B,,2 C,4 F,2 F,,4 | %10
"^6""^5" F,2 G,2 A,2 _B,2 ^F,2 G,2 |"^6""^5" ^G,2 A,4 D,6 | B,,2 E,2 C,2 F,6 | E,2 D,4 C,6 | %14
 A,2 B,2 C2 F,6 |"^5""^6" E,4 D,2 D,2 E,4 | A,,4 B,,2 C,2 A,,4 |"^4#" B,,6 E,2 E,,4 | %18
"^6""^5" D,,6 C,,6 |"^4#" D,,6 G,,6 |"^6" F,,6 E,,6 |"^6""^5""^4 3" F,,6 G,,6 | !fermata!C,12 |] %23

